X:1
T: Brian Titus' Hornpipe
C:violin part                                                     Bruce Shawyer
R:Reel
Q:232
K:D
M:4/4
L:1/16
D2E2|F4D4 D4E2F2|G4E4 E4A2G2|F4D4 D4E2F2|G2F2E2D2 C4D2E2|
F4D4 D4E2F2|G4E4 E4A2G2|F4A4 E4A4|F4D4 D4D2E2|
F4D4 D4E2F2|G4E4 E4A2G2|F4D4 D4E2F2|G2F2E2D2 C4D2E2|
F4D4 D4E2F2|G4E4 E4A2G2|F4A4 E4A4|F4D4 D4a2g2|
f4a4 a4g2f2|g4b4 b4a2g2|f4a4 a4g2f2|g4e4 e4a2g2|
f4a4 a4g2f2|g4b4 b4a2g2|f4a4 e4a4|f4d4 d4a2g2|
f4a4 a4g2f2|g4b4 b4a2g2|f4a4 a4g2f2|g4e4 e4a2g2|
f4a4 a4g2f2|g4b4 b4a2g2|f4a4 e4a4|f4d4 d4||
